svgs/sharp-duotone-solid/utility-pole.svg

<svg xmlns="http://www.w3.org/2000/svg" viewBox="0 0 512 512"><!--! Font Awesome Pro 7.1.0 by @fontawesome - https://fontawesome.com License - https://fontawesome.com/license (Commercial License) Copyright 2025 Fonticons, Inc. --><path opacity=".4" fill="currentColor" d="M0 32l48 0 0 32-48 0 0-32zm64.9 96l75 0 84.1 70.1 0 62.5-159.1-132.6zM80 32l48 0 0 32-48 0 0-32zM288 198.1l84.1-70.1 75 0-159.1 132.6 0-62.5zM384 32l48 0 0 32-48 0 0-32zm80 0l48 0 0 32-48 0 0-32z"/><path fill="currentColor" d="M288 0l0 64 224 0 0 64-224 0 0 384-64 0 0-384-224 0 0-64 224 0 0-64 64 0z"/></svg>

<svg xmlns="http://www.w3.org/2000/svg" viewBox="0 0 512 512"><!--! Font Awesome Pro 6.6.0 by @fontawesome - https://fontawesome.com License - https://fontawesome.com/license (Commercial License) Copyright 2024 Fonticons, Inc. --><defs><style>.fa-secondary{opacity:.4}</style></defs><path class="fa-secondary" d="M0 32l48 0 0 24 0 8L0 64l0-8L0 32zm80 0l48 0 0 24 0 8L80 64l0-8 0-24zm3.2 96l57.7 0L224 183.4l0 38.5L83.2 128zM288 183.4L371.2 128l57.7 0L288 221.9l0-38.5zM384 32l48 0 0 24 0 8-48 0 0-8 0-24zm80 0l48 0 0 24 0 8-48 0 0-8 0-24z"/><path class="fa-primary" d="M288 0V64H512v64H288V512H224V128H0V64H224V0h64z"/></svg>
